-- pattern in my head: x x [x x] x

-- composition with just patterns. no fancy stuff. 

-- drums: 
d1 $ stack [
s "bd [bd bd] ~ bd",
s "hh*2", 
s"<cp cp>/2", 
s "ho/4"
]

d1 silence

d2 $ stack [
s "bd [bd bd] ~ bd",
s "hh*4", 
s"[cp cp ~ cp]/2", 
s "ho/4"
]

-- d3 $ slow 2 $ n "<[0,2,4] [2,4,5] [1,3,5] [0 ,1 ,5]>" # s "supersquare" # delay 0.8 # delaytime (1/16) # delayfeedback 0.2 # lock 1 # cutoff 300 # resonance 0.2

hush
